!!!OTL: Dui huadeng, 3)
!!!ARE: Asia, China,ÿHenan, Zhenping
!! IV, 156
!!!SCT: C1661C
!!!YEM: Copyright 1995, estate of Helmut Schaffrath.
**kern
*ICvox
*Ivox
*M2/4
*k[f#]
*G:
{8dd
16ee
16dd
4cc
=1
8dd
16ee
16dd
4cc
=2
8.g
16a
4dd
=3
8g
16g
16fn
4g}
=4
{8.g
16a
8dd
16dd
16b
=5
8a
8dd
8a
8g
=6
8d
8g
8a
8g
=7
8d
8c
4d}
=8
{8dd
16a
16dd
8a
8g
=9
8d
8g
8a
8g
=10
2d}
==
!!!AGN: Wuge
!!!AMT: simple duple
!!!AIN: vox
!!!EED: Helmut Schaffrath
!!!EEV: 1.0
*-
